img/icon-license-5.svg

<svg fill="none" height="16" viewBox="0 0 16 16" width="16" xmlns="http://www.w3.org/2000/svg"><path clip-rule="evenodd" d="m8.74991 1.5c0-.19891-.07902-.38968-.21967-.53033-.14066-.140652-.33142-.21967-.53033-.21967-.19892 0-.38968.079018-.53033.21967-.14066.14065-.21967.33142-.21967.53033v1.25h-.984c-.305 0-.604.08-.869.23l-1.288.737c-.03806.02177-.08116.03315-.125.033h-2.234c-.19892 0-.38968.07902-.53033.21967-.14066.14065-.219673.33142-.219673.53033s.079013.38968.219673.53033c.14065.14065.33141.21967.53033.21967h.428l-2.1120034 4.692c-.06238195.1388-.0810601.2933-.0535537.443s.0998951.2874.2075541.395l.53-.53-.53.53v.001l.002.002.002.002.006.006.016.015.045.04c.210311.1763.440547.3273.686.45.629703.307 1.322493.4625 2.023003.454.88 0 1.556-.22 2.023-.454.24544-.1227.47568-.2737.686-.45l.045-.04.016-.015.006-.006.002-.002.001-.002-.529-.531.53.53c.10765-.1076.18004-.2453.20755-.395s.00883-.3042-.05355-.443l-2.112-4.692h.162c.305 0 .604-.08.869-.23l1.289-.737c.03776-.0216.0805-.03298.124-.033h.984v9.5h-2.5c-.19892 0-.38968.079-.53033.2197-.14066.1406-.21967.3314-.21967.5303s.07901.3897.21967.5303c.14065.1407.33141.2197.53033.2197h6.49999c.1989 0 .3897-.079.5303-.2197.1407-.1406.2197-.3314.2197-.5303s-.079-.3897-.2197-.5303c-.1406-.1407-.3314-.2197-.5303-.2197h-2.49999v-9.5h.984c.0435.00002.08624.0114.124.033l1.28999.736c.264.152.563.231.868.231h.162l-2.112 4.692c-.0624.1388-.08105.2933-.0535.443.0275.1497.0998.2874.2075.395l.53-.53-.53.53v.001l.002.002.002.002.006.006.016.015.045.04c.2103.1762.4406.3273.686.45.6297.307 1.3225.4625 2.023.454.88 0 1.556-.22 2.023-.454.2455-.1227.4757-.2737.686-.45l.045-.04.01-.01.006-.005.006-.006.002-.002.001-.002-.529-.531.53.53c.1077-.1076.1801-.2453.2076-.395s.0088-.3042-.0536-.443l-2.111-4.692h.427c.1989 0 .3897-.07902.5303-.21967.1407-.14065.2197-.33142.2197-.53033s-.079-.38968-.2197-.53033c-.1406-.14065-.3314-.21967-.5303-.21967h-2.234c-.0435-.00002-.0862-.0114-.124-.033l-1.29-.736c-.264-.15104-.5628-.23065-.86699-.231h-.985zm-7.055 8.477c.285.135.718.273 1.305.273s1.02-.138 1.305-.273l-1.305-2.9zm9.99999 0c.285.135.718.273 1.305.273s1.02-.138 1.305-.273l-1.305-2.9z" fill="#000" fill-rule="evenodd"/></svg>

<svg width="16" height="16" viewBox="0 0 16 16" fill="none" xmlns="http://www.w3.org/2000/svg">
<path fill-rule="evenodd" clip-rule="evenodd" d="M8.74991 1.5C8.74991 1.30109 8.67089 1.11032 8.53024 0.96967C8.38958 0.829018 8.19882 0.75 7.99991 0.75C7.80099 0.75 7.61023 0.829018 7.46958 0.96967C7.32892 1.11032 7.24991 1.30109 7.24991 1.5V2.75H6.26591C5.96091 2.75 5.66191 2.83 5.39691 2.98L4.10891 3.717C4.07085 3.73877 4.02775 3.75015 3.98391 3.75H1.74991C1.55099 3.75 1.36023 3.82902 1.21958 3.96967C1.07892 4.11032 0.999907 4.30109 0.999907 4.5C0.999907 4.69891 1.07892 4.88968 1.21958 5.03033C1.36023 5.17098 1.55099 5.25 1.74991 5.25H2.17791L0.0659066 9.942C0.00352465 10.0808 -0.0151535 10.2353 0.0123529 10.385C0.0398593 10.5347 0.112248 10.6724 0.219907 10.78L0.749907 10.25L0.219907 10.78V10.781L0.221907 10.783L0.223907 10.785L0.229907 10.791L0.245907 10.806L0.290907 10.846C0.501218 11.0223 0.731454 11.1733 0.976907 11.296C1.60661 11.603 2.2994 11.7585 2.99991 11.75C3.87991 11.75 4.55591 11.53 5.02291 11.296C5.26835 11.1733 5.49859 11.0223 5.70891 10.846L5.75391 10.806L5.76991 10.791L5.77591 10.785L5.77791 10.783L5.77891 10.781L5.24991 10.25L5.77991 10.78C5.88756 10.6724 5.95995 10.5347 5.98746 10.385C6.01497 10.2353 5.99629 10.0808 5.93391 9.942L3.82191 5.25H3.98391C4.28891 5.25 4.58791 5.17 4.85291 5.02L6.14191 4.283C6.17967 4.2614 6.22241 4.25002 6.26591 4.25H7.24991V13.75H4.74991C4.55099 13.75 4.36023 13.829 4.21958 13.9697C4.07892 14.1103 3.99991 14.3011 3.99991 14.5C3.99991 14.6989 4.07892 14.8897 4.21958 15.0303C4.36023 15.171 4.55099 15.25 4.74991 15.25H11.2499C11.4488 15.25 11.6396 15.171 11.7802 15.0303C11.9209 14.8897 11.9999 14.6989 11.9999 14.5C11.9999 14.3011 11.9209 14.1103 11.7802 13.9697C11.6396 13.829 11.4488 13.75 11.2499 13.75H8.74991V4.25H9.73391C9.77741 4.25002 9.82015 4.2614 9.85791 4.283L11.1479 5.019C11.4119 5.171 11.7109 5.25 12.0159 5.25H12.1779L10.0659 9.942C10.0035 10.0808 9.98485 10.2353 10.0124 10.385C10.0399 10.5347 10.1122 10.6724 10.2199 10.78L10.7499 10.25L10.2199 10.78V10.781L10.2219 10.783L10.2239 10.785L10.2299 10.791L10.2459 10.806L10.2909 10.846C10.5012 11.0222 10.7315 11.1733 10.9769 11.296C11.6066 11.603 12.2994 11.7585 12.9999 11.75C13.8799 11.75 14.5559 11.53 15.0229 11.296C15.2684 11.1733 15.4986 11.0223 15.7089 10.846L15.7539 10.806L15.7639 10.796L15.7699 10.791L15.7759 10.785L15.7779 10.783L15.7789 10.781L15.2499 10.25L15.7799 10.78C15.8876 10.6724 15.96 10.5347 15.9875 10.385C16.015 10.2353 15.9963 10.0808 15.9339 9.942L13.8229 5.25H14.2499C14.4488 5.25 14.6396 5.17098 14.7802 5.03033C14.9209 4.88968 14.9999 4.69891 14.9999 4.5C14.9999 4.30109 14.9209 4.11032 14.7802 3.96967C14.6396 3.82902 14.4488 3.75 14.2499 3.75H12.0159C11.9724 3.74998 11.9297 3.7386 11.8919 3.717L10.6019 2.981C10.3379 2.82996 10.0391 2.75035 9.73491 2.75H8.74991V1.5ZM1.69491 9.977C1.97991 10.112 2.41291 10.25 2.99991 10.25C3.58691 10.25 4.01991 10.112 4.30491 9.977L2.99991 7.077L1.69491 9.977ZM11.6949 9.977C11.9799 10.112 12.4129 10.25 12.9999 10.25C13.5869 10.25 14.0199 10.112 14.3049 9.977L12.9999 7.077L11.6949 9.977Z" fill="black"/>
</svg>
